public/icons/box.svg

<svg height="96" viewBox="0 0 64 64" width="96" xmlns="http://www.w3.org/2000/svg" xmlns:xlink="http://www.w3.org/1999/xlink"><linearGradient id="a" gradientUnits="userSpaceOnUse" spreadMethod="reflect" x1="32" x2="32" y1="16.501" y2="23.293"><stop offset="0" stop-color="#6dc7ff"/><stop offset="1" stop-color="#e6abff"/></linearGradient><linearGradient id="b" gradientUnits="userSpaceOnUse" spreadMethod="reflect" x1="32" x2="32" y1="10.001" y2="55.262"><stop offset="0" stop-color="#1a6dff"/><stop offset="1" stop-color="#c822ff"/></linearGradient><path d="m23 20.002 9-3 9 3-9 3z" fill="url(#a)"/><path d="m56.635 21.134-3.378-1.133 3.378-1.132a1.978 1.978 0 0 0 1.365-1.902c0-.88-.538-1.628-1.37-1.907l-14.619-4.902a3.012 3.012 0 0 0 -1.909 0l-8.102 2.716-8.101-2.717a2.974 2.974 0 0 0 -1.901-.002l-7.458 2.501c-3.608 1.21-7.08 2.373-7.172 2.403a1.988 1.988 0 0 0 -1.368 1.91 1.978 1.978 0 0 0 1.367 1.9l3.376 1.132-3.372 1.131a1.98 1.98 0 0 0 -1.369 1.906 1.98 1.98 0 0 0 1.369 1.905l5.629 1.888v19.512c0 1.245.833 2.342 2.072 2.729l14.724 4.595c.711.221 1.457.332 2.204.332s1.493-.111 2.204-.332l14.725-4.596c1.238-.386 2.071-1.483 2.071-2.728v-19.512l5.629-1.887a1.985 1.985 0 0 0 1.371-1.908c0-.876-.536-1.624-1.365-1.902zm-15.897-9.08c.205-.068.43-.068.635 0l14.626 4.919-5.944 1.993-15.01-5.003zm-23.576 7.947 14.838-4.946 14.838 4.946-14.838 4.947zm-9.16-3.044 7.174-2.405 7.459-2.5a.958.958 0 0 1 .627.002l5.693 1.909-15.001 5zm5.943 4.08 15.01 5.003-5.695 1.908a1 1 0 0 1 -.635 0l-14.619-4.92zm1.724 26.126c-.4-.125-.669-.455-.669-.82v-5.491l16 4.889v6.155a5.203 5.203 0 0 1 -.608-.14zm32.663-.001-14.724 4.595c-.199.062-.404.101-.608.14v-6.155l16-4.889v5.491c0 .364-.269.694-.668.818zm.668-8.4-16 4.888v-11.65h-2v11.65l-16-4.888v-11.26l6.99 2.344a3.021 3.021 0 0 0 1.907-.001l8.103-2.716 8.102 2.716a3.006 3.006 0 0 0 1.907 0l6.991-2.344zm-7.628-10.813a1 1 0 0 1 -.635 0l-5.693-1.908 15.001-5 5.949 2.007z" fill="url(#b)"/></svg>

<svg xmlns="http://www.w3.org/2000/svg"  viewBox="0 0 64 64" width="96px" height="96px"><linearGradient id="eBuINbZy_Rv3XeVLNyFQ~a" x1="32" x2="32" y1="16.501" y2="23.293" gradientUnits="userSpaceOnUse" spreadMethod="reflect"><stop offset="0" stop-color="#6dc7ff"/><stop offset="1" stop-color="#e6abff"/></linearGradient><path fill="url(#eBuINbZy_Rv3XeVLNyFQ~a)" d="M23 20.002L32 17.002 41 20.002 41 20.002 32 23.002z"/><linearGradient id="eBuINbZy_Rv3XeVLNyFQ~b" x1="32" x2="32" y1="10.001" y2="55.262" gradientUnits="userSpaceOnUse" spreadMethod="reflect"><stop offset="0" stop-color="#1a6dff"/><stop offset="1" stop-color="#c822ff"/></linearGradient><path fill="url(#eBuINbZy_Rv3XeVLNyFQ~b)" d="M56.635,21.134l-3.378-1.133l3.378-1.132C57.464,18.591,58,17.844,58,16.967 c0-0.88-0.538-1.628-1.37-1.907l-14.619-4.902c-0.615-0.207-1.294-0.207-1.909,0L32,12.874l-8.101-2.717 c-0.626-0.209-1.285-0.209-1.901-0.002l-7.458,2.501c-3.608,1.21-7.08,2.373-7.172,2.403C6.537,15.34,6,16.089,6,16.969 c0.001,0.876,0.537,1.622,1.367,1.9l3.376,1.132l-3.372,1.131c-0.832,0.278-1.369,1.026-1.369,1.906 c0,0.879,0.537,1.627,1.369,1.905L13,26.831v19.512c0,1.245,0.833,2.342,2.072,2.729l14.724,4.595 c0.711,0.221,1.457,0.332,2.204,0.332s1.493-0.111,2.204-0.332l14.725-4.596C50.167,48.685,51,47.588,51,46.343V26.831l5.629-1.887 C57.462,24.664,58,23.916,58,23.036C58,22.16,57.464,21.412,56.635,21.134z M40.738,12.054c0.205-0.068,0.43-0.068,0.635,0 l14.626,4.919l-5.944,1.993l-15.01-5.003L40.738,12.054z M17.162,20.001L32,15.055l14.838,4.946L32,24.948L17.162,20.001z M8.002,16.957c0.078-0.026,3.558-1.192,7.174-2.405l7.459-2.5c0.1-0.034,0.204-0.051,0.309-0.051c0.106,0,0.214,0.018,0.318,0.053 l5.693,1.909l-15.001,5L8.002,16.957z M13.945,21.037l15.01,5.003l-5.695,1.908c-0.203,0.07-0.428,0.068-0.635,0l-14.619-4.92 L13.945,21.037z M15.669,47.163c-0.4-0.125-0.669-0.455-0.669-0.82v-5.491l16,4.889v6.155c-0.205-0.038-0.41-0.078-0.608-0.14 L15.669,47.163z M48.332,47.162l-14.724,4.595c-0.199,0.062-0.404,0.101-0.608,0.14v-6.155l16-4.889v5.491 C49,46.708,48.731,47.038,48.332,47.162z M49,38.762L33,43.65V32h-2v11.65l-16-4.888v-11.26l6.99,2.344 C22.299,29.949,22.622,30,22.945,30s0.646-0.052,0.952-0.155L32,27.129l8.102,2.716c0.617,0.207,1.294,0.207,1.907,0L49,27.501 V38.762z M41.372,27.949c-0.203,0.07-0.428,0.068-0.635,0l-5.693-1.908l15.001-5l5.949,2.007L41.372,27.949z"/></svg>
